X:1
T:DELAWARE -- HORNPIPE
B:Cole's 1000 Fiddle Tunes
B:Ryan's Mammoth Collection of Fiddle Tunes
R:hornpipe
Z:Contributed 20030307 Bob Puckette <BobP:at:workcom.com>
Z:Contributed 20000508 Bob Safranek <rjs:gsp.org>
Z:Edited by John Chambers
M:2/4
L:1/16
K:G
(udc) | BGBd BGBd | gfge dBGB | "4"ecdB cABG | E2A2A2 (dc) |
        BGBd BGBd | gfge dBGB | "4"ecdB cABG | D2G2G2 :|
|:ug2 | dgBg dgBg | dgba gfed |    eaca eaca | e2(ag) fed^c |
        dgBg dgBg | dgba gfed |    eaba gfef | g2g2g2 :|
